svg/OSM-icons/shop #ac39ac °ffffff !label=enshops,deLäden/29029;shop=convenience;!name=;[shop];!label=enconvenience,deNachbarsch.- laden.svg

<svg xmlns="http://www.w3.org/2000/svg" viewBox="0 0 580 580" enable-background="new 0 0 580 580"><path fill="#111" stroke="#eee" stroke-width="3.408" d="m66.28 1.768c-41.34 0-64.57 21.371-64.57 65.04v450.12c0 40.845 20.895 62.23 62.19 62.23h452.02c41.31 0 62.23-20.315 62.23-62.23v-450.12c0-42.601-20.923-65.04-63.52-65.04-.004 0-448.5-.143-448.35 0z"/><path fill="#fff" d="m520.12 221.84c-2.672-3.376-6.74-5.345-11.05-5.345h-191.04l47.858-128.61c.925-2.485.824-5.237-.279-7.648s-3.12-4.286-5.605-5.211l-15.67-5.831c-5.173-1.925-10.933.708-12.859 5.885l-52.623 141.42h-198.65c-4.302 0-8.367 1.965-11.04 5.336-2.672 3.371-3.657 7.778-2.675 11.966l49.668 211.83c1.494 6.371 7.176 10.871 13.714 10.871.021 0 .042 0 .063 0l329.53-1.458c6.509-.029 12.151-4.515 13.647-10.85l49.674-210.37c.991-4.189.009-8.602-2.663-11.978m-191.27 22.828v54.947h-72.3v-54.947h72.3m0 73.73v60.3h-72.3v-60.3h72.3m-91.09-18.782h-68.3v-54.947h68.3v54.947m0 18.782v60.3h-68.3v-60.3h68.3m0 79.08v30.363l-68.3.302v-30.665h68.3m18.782 0h72.3v29.96l-72.3.32v-30.28m91.08 0h70.3v29.565l-70.3.312v-29.877m0-18.782v-60.3h70.3v60.3h-70.3m0-79.08v-54.947h70.3v54.947h-70.3m-196.95-54.947v54.947h-32.25c-2.715 0-5.154 1.159-6.869 3l-13.587-57.949h52.709m-35.566 73.12c1.031.39 2.145.612 3.313.612h32.25v60.3h-14.437c-2.417 0-4.614.921-6.278 2.421l-14.851-63.34m18.604 79.34c.805.225 1.649.354 2.525.354h14.437v30.748l-9.659.043-7.303-31.14m303 29.836v-29.482h18.475l-6.949 29.432-11.526.05m22.906-48.25c-.081-.003-.16-.013-.242-.013h-22.664v-60.3h37.15l-14.242 60.32m18.661-79.03c-.356-.041-.718-.067-1.086-.067h-40.481v-54.947h54.56l-12.991 55.01"/></svg>

<?xml version="1.0" encoding="utf-8"?>
<!-- Generator: Adobe Illustrator 15.0.0, SVG Export Plug-In . SVG Version: 6.00 Build 0)  -->
<!DOCTYPE svg PUBLIC "-//W3C//DTD SVG 1.1//EN" "http://www.w3.org/Graphics/SVG/1.1/DTD/svg11.dtd">
<svg version="1.1"
	 id="svg2" inkscape:output_extension="org.inkscape.output.svg.inkscape" xmlns:rdf="http://www.w3.org/1999/02/22-rdf-syntax-ns#" xmlns:svg="http://www.w3.org/2000/svg" xmlns:sodipodi="http://sodipodi.sourceforge.net/DTD/sodipodi-0.dtd" xmlns:dc="http://purl.org/dc/elements/1.1/" xmlns:inkscape="http://www.inkscape.org/namespaces/inkscape" xmlns:cc="http://creativecommons.org/ns#" sodipodi:version="0.32" inkscape:version="0.46" sodipodi:docname="shopping_convinience.svg" sodipodi:docbase="s:\Data\FacilityIcons"
	 xmlns="http://www.w3.org/2000/svg" xmlns:xlink="http://www.w3.org/1999/xlink" x="0px" y="0px" width="580px" height="580px"
	 viewBox="0 0 580 580" enable-background="new 0 0 580 580" xml:space="preserve">
<sodipodi:namedview  id="base" inkscape:window-x="91" inkscape:pageopacity="0.0" inkscape:window-width="1103" inkscape:pageshadow="2" inkscape:current-layer="svg2" inkscape:window-y="88" inkscape:window-height="783" inkscape:zoom="0.46083856" inkscape:cx="318.83568" objecttolerance="10.0" pagecolor="#ffffff" gridtolerance="10.0" inkscape:cy="319.23647" guidetolerance="10.0" borderopacity="1.0" showgrid="false" bordercolor="#666666">
	</sodipodi:namedview>
<defs>
	
	
		<inkscape:perspective  id="perspective2441" inkscape:persp3d-origin="290 : 193.33333 : 1" inkscape:vp_z="580 : 290 : 1" inkscape:vp_x="0 : 290 : 1" sodipodi:type="inkscape:persp3d" inkscape:vp_y="0 : 1000 : 0">
		</inkscape:perspective>
	
		<inkscape:perspective  id="perspective2466" inkscape:persp3d-origin="372.04724 : 350.78739 : 1" inkscape:vp_z="744.09448 : 526.18109 : 1" inkscape:vp_x="0 : 526.18109 : 1" sodipodi:type="inkscape:persp3d" inkscape:vp_y="0 : 1000 : 0">
		</inkscape:perspective>
</defs>
<g id="g1327">
	<path id="path1329" fill="#111111" stroke="#EEEEEE" stroke-width="3.408" d="M66.275,1.768c-41.335,0-64.571,21.371-64.571,65.036
		v450.123c0,40.845,20.895,62.229,62.192,62.229H515.92c41.307,0,62.229-20.315,62.229-62.229V66.804
		c0-42.601-20.923-65.036-63.521-65.036C514.624,1.768,66.133,1.625,66.275,1.768z"/>
</g>
<path fill="#FFFFFF" d="M520.115,221.835c-2.672-3.376-6.74-5.345-11.046-5.345H318.026l47.858-128.613
	c0.925-2.485,0.824-5.237-0.279-7.648s-3.12-4.286-5.605-5.211l-15.67-5.831c-5.173-1.925-10.933,0.708-12.859,5.885L278.848,216.49
	H80.196c-4.302,0-8.367,1.965-11.04,5.336c-2.672,3.371-3.657,7.778-2.675,11.966l49.668,211.826
	c1.494,6.371,7.176,10.871,13.714,10.871c0.021,0,0.042,0,0.063,0l329.531-1.458c6.509-0.029,12.151-4.515,13.647-10.85
	l49.674-210.368C523.769,229.624,522.787,225.211,520.115,221.835z M328.846,244.663v54.947h-72.302v-54.947H328.846z
	 M328.846,318.392v60.303h-72.302v-60.303H328.846z M237.761,299.61H169.46v-54.947h68.301V299.61z M237.761,318.392v60.303H169.46
	v-60.303H237.761z M237.761,397.476v30.363l-68.301,0.302v-30.665H237.761z M256.543,397.476h72.302v29.96l-72.302,0.32V397.476z
	 M347.627,397.476h70.303v29.565l-70.303,0.312V397.476z M347.627,378.694v-60.303h70.303v60.303H347.627z M347.627,299.61v-54.947
	h70.303v54.947H347.627z M150.678,244.663v54.947h-32.253c-2.715,0-5.154,1.159-6.869,3.002l-13.587-57.949H150.678z
	 M115.112,317.779c1.031,0.39,2.145,0.612,3.313,0.612h32.253v60.303h-14.437c-2.417,0-4.614,0.921-6.278,2.421L115.112,317.779z
	 M133.716,397.122c0.805,0.225,1.649,0.354,2.525,0.354h14.437v30.748l-9.659,0.043L133.716,397.122z M436.711,426.958v-29.482
	h18.475l-6.949,29.432L436.711,426.958z M459.617,378.707c-0.081-0.003-0.16-0.013-0.242-0.013h-22.664v-60.303h37.148
	L459.617,378.707z M478.278,299.678c-0.356-0.041-0.718-0.067-1.086-0.067h-40.481v-54.947h54.558L478.278,299.678z"/>
</svg>
